X: 31721
T: Pat And Al's
R: jig
M: 6/8
K: Amajor
AAA A2B|c2e A2c|BAF F2B|A2Bc2e|
AAA A2B|c2e A2c|BAF FEc|1 ecB BcB:|2 ecB Bce||
AAA A2B|c2e afe|eff f2e|c2e f2a|
eAA A2B|c2e afe|eff f2a|cBB Bcd|
eAA A2B|c2e afe|eff f2e|c2e f2b|
aee f2c|eBB Bcc|BAF F2A|cBB B2c||

